weblate/static/state/lock.svg

<?xml version="1.0" encoding="UTF-8"?>
<svg width="12px" height="14px" viewBox="0 0 12 14" version="1.1" xmlns="http://www.w3.org/2000/svg" xmlns:xlink="http://www.w3.org/1999/xlink">
    <!-- Generator: sketchtool 54.1 (76490) - https://sketchapp.com -->
    <title>01C32C97-4825-4330-ABE3-CEEAF7B9786C</title>
    <desc>Created with sketchtool.</desc>
    <g id="App-UI" stroke="none" stroke-width="1" fill="none" fill-rule="evenodd">
        <g id="Overview" transform="translate(-220.000000, -278.000000)" fill="#2A3744">
            <path d="M222,282 C222,279.790861 223.790861,278 226,278 C228.209139,278 230,279.790861 230,282 L230,284 L232,284 L232,292 L220,292 L220,284 L222,284 L222,282 Z M224,282 L224,284 L228,284 L228,282 C228,280.895431 227.104569,280 226,280 C224.895431,280 224,280.895431 224,282 Z" id="MiniLock"></path>
        </g>
    </g>
</svg>

<?xml version="1.0" encoding="UTF-8" standalone="no"?>
<svg
   xmlns:dc="http://purl.org/dc/elements/1.1/"
   xmlns:cc="http://creativecommons.org/ns#"
   xmlns:rdf="http://www.w3.org/1999/02/22-rdf-syntax-ns#"
   xmlns:svg="http://www.w3.org/2000/svg"
   xmlns="http://www.w3.org/2000/svg"
   xmlns:sodipodi="http://sodipodi.sourceforge.net/DTD/sodipodi-0.dtd"
   xmlns:inkscape="http://www.inkscape.org/namespaces/inkscape"
   width="14"
   height="14"
   viewBox="0 0 14 14"
   version="1.1"
   id="svg9"
   sodipodi:docname="lock.svg"
   inkscape:version="0.92.4 (5da689c313, 2019-01-14)">
  <metadata
     id="metadata15">
    <rdf:RDF>
      <cc:Work
         rdf:about="">
        <dc:format>image/svg+xml</dc:format>
        <dc:type
           rdf:resource="http://purl.org/dc/dcmitype/StillImage" />
        <dc:title>01C32C97-4825-4330-ABE3-CEEAF7B9786C</dc:title>
      </cc:Work>
    </rdf:RDF>
  </metadata>
  <defs
     id="defs13" />
  <sodipodi:namedview
     pagecolor="#ffffff"
     bordercolor="#666666"
     borderopacity="1"
     objecttolerance="10"
     gridtolerance="10"
     guidetolerance="10"
     inkscape:pageopacity="0"
     inkscape:pageshadow="2"
     inkscape:window-width="1920"
     inkscape:window-height="1136"
     id="namedview11"
     showgrid="false"
     inkscape:zoom="16.857143"
     inkscape:cx="6.1186441"
     inkscape:cy="7"
     inkscape:window-x="0"
     inkscape:window-y="27"
     inkscape:window-maximized="1"
     inkscape:current-layer="svg9" />
  <!-- Generator: sketchtool 54.1 (76490) - https://sketchapp.com -->
  <title
     id="title2">01C32C97-4825-4330-ABE3-CEEAF7B9786C</title>
  <desc
     id="desc4">Created with sketchtool.</desc>
  <g
     id="App-UI"
     style="fill:none;fill-rule:evenodd;stroke:none;stroke-width:1"
     transform="translate(1)">
    <g
       id="Overview"
       transform="translate(-220,-278)"
       style="fill:#2a3744">
      <path
         d="m 222,282 c 0,-2.20914 1.79086,-4 4,-4 2.20914,0 4,1.79086 4,4 v 2 h 2 v 8 h -12 v -8 h 2 z m 2,0 v 2 h 4 v -2 c 0,-1.10457 -0.89543,-2 -2,-2 -1.10457,0 -2,0.89543 -2,2 z"
         id="MiniLock"
         inkscape:connector-curvature="0" />
    </g>
  </g>
</svg>
